svg/icon/eos.svg

<svg height="32" viewBox="0 0 32 32" width="32" xmlns="http://www.w3.org/2000/svg" xmlns:xlink="http://www.w3.org/1999/xlink"><defs><linearGradient id="a" x1="50%" x2="50%" y1="0%" y2="100%"><stop offset="0" stop-color="#fff" stop-opacity=".5"/><stop offset="1" stop-opacity=".5"/></linearGradient><circle id="b" cx="16" cy="15" r="15"/><filter id="c" height="111.7%" width="111.7%" x="-5.8%" y="-4.2%"><feOffset dy=".5" in="SourceAlpha" result="shadowOffsetOuter1"/><feGaussianBlur in="shadowOffsetOuter1" result="shadowBlurOuter1" stdDeviation=".5"/><feComposite in="shadowBlurOuter1" in2="SourceAlpha" operator="out" result="shadowBlurOuter1"/><feColorMatrix in="shadowBlurOuter1" values="0 0 0 0 0   0 0 0 0 0   0 0 0 0 0  0 0 0 0.199473505 0"/></filter></defs><g fill="none" fill-rule="nonzero"><g><use fill="#000" filter="url(#c)" xlink:href="#b"/><use fill="#282828" fill-rule="evenodd" xlink:href="#b"/><use fill="url(#a)" fill-rule="evenodd" xlink:href="#b"/><circle cx="16" cy="15" r="14.5" stroke="#000" stroke-opacity=".097"/></g><path d="m9.17737475 19.9136729 2.77584875-4.8985497-1.0096536-3.1706878zm3.04050115-4.0674427-3.25657547 5.7468898h5.08657857zm-2.69235678 6.3868898 5.90423188 3.6995919-1.1780745-3.6995919zm2.85772368-7.9768532 3.2962772-5.81695169v-3.83634751l-4.4390368 6.0646094zm-1.8109151-3.7089308c.00942-.0471479.0293648-.0915614.0580715-.1298303l5.1109019-6.98251098c.0682468-.09323878.1661572-.1336319.2620589-.13153221.0959017-.00209969.1938121.03829343.2620589.13153221l5.1109019 6.98251098c.0287067.0382689.0486515.0826824.0580715.1298303l2.4697028 11.2833617c.0389519.1436135-.0293451.2934541-.1543724.3628282l-7.5726112 4.7449984c-.0566326.035486-.1162915.0508174-.1737515.0500464-.05746.000771-.1171189-.0145604-.1737515-.0500464l-7.57261122-4.7449984c-.12502723-.0693741-.19332432-.2192147-.15437236-.3628282zm5.4310323 15.0774446 1.0800188-3.3916606h-2.1600376zm.573609.3079313 5.9042319-3.6995919h-4.7261574zm4.4861811-14.0882765-1.0096536 3.1706878 2.7758487 4.8985497zm-.2969133-1.1768584-4.4390368-6.0646094v3.83634751l3.2962772 5.81695169zm2.2791828 10.925543-3.2565755-5.7468898-1.8300031 5.7468898zm-7.0420596-12.42714648-3.3554648 5.92140018 2.0716484 6.5057463h2.5676328l2.0716484-6.5057463zm7.312793 12.90491068.278407-.4777642h-.5491404zm-14.903993-.4777642.278407.4777642.27073343-.4777642z" fill="#fff"/></g></svg>

<svg xmlns="http://www.w3.org/2000/svg" xmlns:xlink="http://www.w3.org/1999/xlink" width="32" height="32" viewBox="0 0 32 32">
  <defs>
    <linearGradient id="eos-c" x1="50%" x2="50%" y1="0%" y2="100%">
      <stop offset="0%" stop-color="#FFF" stop-opacity=".5"/>
      <stop offset="100%" stop-opacity=".5"/>
    </linearGradient>
    <circle id="eos-b" cx="16" cy="15" r="15"/>
    <filter id="eos-a" width="111.7%" height="111.7%" x="-5.8%" y="-4.2%" filterUnits="objectBoundingBox">
      <feOffset dy=".5" in="SourceAlpha" result="shadowOffsetOuter1"/>
      <feGaussianBlur in="shadowOffsetOuter1" result="shadowBlurOuter1" stdDeviation=".5"/>
      <feComposite in="shadowBlurOuter1" in2="SourceAlpha" operator="out" result="shadowBlurOuter1"/>
      <feColorMatrix in="shadowBlurOuter1" values="0 0 0 0 0   0 0 0 0 0   0 0 0 0 0  0 0 0 0.199473505 0"/>
    </filter>
  </defs>
  <g fill="none" fill-rule="evenodd">
    <g fill-rule="nonzero">
      <use fill="#000" filter="url(#eos-a)" xlink:href="#eos-b"/>
      <use fill="#282828" fill-rule="evenodd" xlink:href="#eos-b"/>
      <use fill="url(#eos-c)" fill-rule="evenodd" style="mix-blend-mode:soft-light" xlink:href="#eos-b"/>
      <circle cx="16" cy="15" r="14.5" stroke="#000" stroke-opacity=".097"/>
    </g>
    <path fill="#FFF" fill-rule="nonzero" d="M9.17737475,19.9136729 L11.9532235,15.0151232 L10.9435699,11.8444354 L9.17737475,19.9136729 Z M12.2178759,15.8462302 L8.96130043,21.59312 L14.047879,21.59312 L12.2178759,15.8462302 Z M9.52551912,22.23312 L15.429751,25.9327119 L14.2516765,22.23312 L9.52551912,22.23312 Z M12.3832428,14.2562668 L15.67952,8.43931511 L15.67952,4.6029676 L11.2404832,10.667577 L12.3832428,14.2562668 Z M10.5723277,10.547336 C10.5817477,10.5001881 10.6016925,10.4557746 10.6303992,10.4175057 L15.7413011,3.43499472 C15.8095479,3.34175594 15.9074583,3.30136282 16.00336,3.30346251 C16.0992617,3.30136282 16.1971721,3.34175594 16.2654189,3.43499472 L21.3763208,10.4175057 C21.4050275,10.4557746 21.4249723,10.5001881 21.4343923,10.547336 L23.9040951,21.8306977 C23.943047,21.9743112 23.87475,22.1241518 23.7497227,22.1935259 L16.1771115,26.9385243 C16.1204789,26.9740103 16.06082,26.9893417 16.00336,26.9885707 C15.9459,26.9893417 15.8862411,26.9740103 15.8296085,26.9385243 L8.25699728,22.1935259 C8.13197005,22.1241518 8.06367296,21.9743112 8.10262492,21.8306977 L10.5723277,10.547336 Z M16.00336,25.6247806 L17.0833788,22.23312 L14.9233412,22.23312 L16.00336,25.6247806 Z M16.576969,25.9327119 L22.4812009,22.23312 L17.7550435,22.23312 L16.576969,25.9327119 Z M21.0631501,11.8444354 L20.0534965,15.0151232 L22.8293452,19.9136729 L21.0631501,11.8444354 Z M20.7662368,10.667577 L16.3272,4.6029676 L16.3272,8.43931511 L19.6234772,14.2562668 L20.7662368,10.667577 Z M23.0454196,21.59312 L19.7888441,15.8462302 L17.958841,21.59312 L23.0454196,21.59312 Z M16.00336,9.16597352 L12.6478952,15.0873737 L14.7195436,21.59312 L17.2871764,21.59312 L19.3588248,15.0873737 L16.00336,9.16597352 Z M23.316153,22.0708842 L23.59456,21.59312 L23.0454196,21.59312 L23.316153,22.0708842 Z M8.41216,21.59312 L8.690567,22.0708842 L8.96130043,21.59312 L8.41216,21.59312 Z"/>
  </g>
</svg>
